X:1
T:Denis Murphy's No. 2
R:slide
M:12/8
L:1/8
K:E
|:B2B BAB c2B ABc|BAF A2F E2F A2c|
|B2B BAB c2B ABc|1 BAF A2F E3 EFA:|2 BAF A2F E3 E2e|]
|:e2B BAB c2B ABc|BAF A2F E2F A2e|
|e2B BAB c2B ABc|1 BAF A2F E3 E2e:|2 BAF A2F E3 EFA|]